X: 11381
T: MAIS' AN TAOBH TUADH
T: The BEAUTY OF THE NORTH
Q: "Strathspey style."
%R: strathspey
B: W. Hamilton "Universal Tune-Book" Vol. 1 Glasgow 1844 p.138 #1
S: http://imslp.org/wiki/Hamilton's_Universal_Tune-Book_(Various)
Z: 2016 John Chambers <jc:trillian.mit.edu>
M: C
L: 1/16
K: Eb
%%slurgraces yes
%%graceslurs yes
% - - - - - - - - - - - - - - - - - - - - - - - - -
E2 |\
G,E3TE3F G3ABc3 | CC3TF3E D3B,B,4 |\
G,E3TE3F G3ABg3 | f3d (ed).c.B {d}e4 e2 :|\
g2 |\
{d}e3gBg3 eg3b3g | {g}a3g{g}f3e dB3Bg3 |
eg3B3g efga bg3 | {g}a3f (ed).c.B {d}e4 e2f2 |\
ge3BG3 eB3GE3 | {G}A3GF3E DB,3 B,4 |\
G,E3EF3 Ge3Bg3 | f3d edcB {d}e4 e2 |]
% - - - - - - - - - - - - - - - - - - - - - - - - -

%%sep 1 1 500
%%sep 1 1 500

